svgs/sharp-regular/transporter-3.svg

<svg xmlns="http://www.w3.org/2000/svg" viewBox="0 0 512 512"><!--! Font Awesome Pro 6.6.0 by @fontawesome - https://fontawesome.com License - https://fontawesome.com/license (Commercial License) Copyright 2024 Fonticons, Inc. --><path d="M480 32L464 0 448 32 416 48l32 16 16 32 16-32 32-16L480 32zM64 128L48 96 32 128 0 144l32 16 16 32 16-32 32-16L64 128zm56 336l-24 0 0 48 24 0 272 0 24 0 0-48-24 0-272 0zM304 48a48 48 0 1 0 -96 0 48 48 0 1 0 96 0zM176 128l-16 0 0 32 16 0 160 0 16 0 0-32-16 0-160 0zm-32 64l-16 0 0 32 16 0 224 0 16 0 0-32-16 0-224 0zm-32 64l-16 0 0 32 16 0 288 0 16 0 0-32-16 0-288 0zm64 64l-16 0 0 32 16 0 160 0 16 0 0-32-16 0-160 0zm0 64l-16 0 0 32 16 0 160 0 16 0 0-32-16 0-160 0z"/></svg>

<svg xmlns="http://www.w3.org/2000/svg" viewBox="0 0 512 512"><!--! Font Awesome Pro 6.4.0 by @fontawesome - https://fontawesome.com License - https://fontawesome.com/license (Commercial License) Copyright 2023 Fonticons, Inc. --><path d="M480 32L464 0 448 32 416 48l32 16 16 32 16-32 32-16L480 32zM64 128L48 96 32 128 0 144l32 16 16 32 16-32 32-16L64 128zm56 336H96v48h24H392h24V464H392 120zM304 48a48 48 0 1 0 -96 0 48 48 0 1 0 96 0zM176 128H160v32h16H336h16V128H336 176zm-32 64H128v32h16H368h16V192H368 144zm-32 64H96v32h16H400h16V256H400 112zm64 64H160v32h16H336h16V320H336 176zm0 64H160v32h16H336h16V384H336 176z"/></svg>
